Simply-Green-Circles/scalable/apps/apk-icon-editor.svg

<svg xmlns="http://www.w3.org/2000/svg" width="48" height="48" viewBox="0 0 12.7 12.7"><path d="M6.31 1.52a4.87 4.87 0 0 0-.36.01 4.87 4.87 0 0 0-.49.06A4.87 4.87 0 0 0 5 1.7a4.87 4.87 0 0 0-.46.16 4.87 4.87 0 0 0-.45.2 4.87 4.87 0 0 0-.42.24 4.87 4.87 0 0 0-.4.29 4.87 4.87 0 0 0-.36.32 4.87 4.87 0 0 0-.33.36 4.87 4.87 0 0 0-.29.39 4.87 4.87 0 0 0-.25.41 4.87 4.87 0 0 0-.21.44 4.87 4.87 0 0 0-.17.46 4.87 4.87 0 0 0-.12.47 4.87 4.87 0 0 0-.07.48 4.87 4.87 0 0 0-.02.49 4.87 4.87 0 0 0 .01.35 4.87 4.87 0 0 0 .06.49 4.87 4.87 0 0 0 .1.47 4.87 4.87 0 0 0 .16.46 4.87 4.87 0 0 0 .2.45 4.87 4.87 0 0 0 .25.42 4.87 4.87 0 0 0 .28.4 4.87 4.87 0 0 0 .32.36 4.87 4.87 0 0 0 .36.33 4.87 4.87 0 0 0 .39.3 4.87 4.87 0 0 0 .41.25 4.87 4.87 0 0 0 .44.21 4.87 4.87 0 0 0 .46.17 4.87 4.87 0 0 0 .47.12 4.87 4.87 0 0 0 .48.07 4.87 4.87 0 0 0 .49.02 4.87 4.87 0 0 0 .35-.01 4.87 4.87 0 0 0 .49-.06 4.87 4.87 0 0 0 .47-.1 4.87 4.87 0 0 0 .46-.16 4.87 4.87 0 0 0 .45-.2 4.87 4.87 0 0 0 .42-.25 4.87 4.87 0 0 0 .4-.28 4.87 4.87 0 0 0 .36-.32 4.87 4.87 0 0 0 .33-.36 4.87 4.87 0 0 0 .3-.39 4.87 4.87 0 0 0 .25-.41 4.87 4.87 0 0 0 .21-.44 4.87 4.87 0 0 0 .17-.46 4.87 4.87 0 0 0 .12-.47 4.87 4.87 0 0 0 .07-.48 4.87 4.87 0 0 0 .02-.49 4.87 4.87 0 0 0-.01-.35 4.87 4.87 0 0 0-.06-.48 4.87 4.87 0 0 0-.1-.47 4.87 4.87 0 0 0-.16-.47 4.87 4.87 0 0 0-.2-.44 4.87 4.87 0 0 0-.24-.42 4.87 4.87 0 0 0-.28-.4 4.87 4.87 0 0 0-.33-.36 4.87 4.87 0 0 0-.35-.34 4.87 4.87 0 0 0-.39-.3 4.87 4.87 0 0 0-.41-.25 4.87 4.87 0 0 0-.44-.2 4.87 4.87 0 0 0-.46-.17 4.87 4.87 0 0 0-.47-.12 4.87 4.87 0 0 0-.48-.08 4.87 4.87 0 0 0-.49-.02v-.01zm-3.3 1.5h.95v.95H3V3zm1.43 0h.95v.95h-.95V3zm1.43 0h.95v.95h-.95V3zm1.43 0h.96v.95H7.3V3zm1.43 0h.96v.95h-.96V3zM3 4.44h.96v.95H3v-.95zm1.44 0h.95v.95h-.95v-.95zm1.43 0h.95v.95h-.95v-.95zm1.43 0h.96v.95H7.3v-.95zm1.43 0h.96v.95h-.96v-.95zM3 5.88h.96v.95H3v-.95zm1.44 0h.95v.95h-.95v-.95zm1.43 0h.95v.95h-.95v-.95zm1.43 0h.96v.95H7.3v-.95zm1.43 0h.96v.95h-.96v-.95zM3 7.3h.96v.95H3v-.95zm1.44 0h.95v.95h-.95v-.95zm1.43 0h.95v.95h-.95v-.95zm1.43 0h.96v.95H7.3v-.95zm1.43 0h.96v.95h-.96v-.95zM3 8.74h.96v.96H3v-.96zm1.44 0h.95v.96h-.95v-.96zm1.43 0h.95v.96h-.95v-.96zm1.43 0h.96v.96H7.3v-.96zm1.43 0h.96v.96h-.96v-.96z" fill="#447821" opacity=".83"/><path d="M6.34.07a6.29 6.29 0 0 0-6.29 6.3 6.29 6.29 0 0 0 6.3 6.28 6.29 6.29 0 0 0 6.28-6.29A6.29 6.29 0 0 0 6.34.07zM6.32 1l.01.01a5.4 5.4 0 0 1 5.4 5.4 5.4 5.4 0 0 1-5.4 5.41 5.4 5.4 0 0 1-5.41-5.4A5.4 5.4 0 0 1 6.32 1z" fill="#2ca02c"/></svg>

<?xml version="1.0" encoding="UTF-8" standalone="no"?>
<svg
   xmlns:dc="http://purl.org/dc/elements/1.1/"
   xmlns:cc="http://creativecommons.org/ns#"
   xmlns:rdf="http://www.w3.org/1999/02/22-rdf-syntax-ns#"
   xmlns:svg="http://www.w3.org/2000/svg"
   xmlns="http://www.w3.org/2000/svg"
   xmlns:sodipodi="http://sodipodi.sourceforge.net/DTD/sodipodi-0.dtd"
   xmlns:inkscape="http://www.inkscape.org/namespaces/inkscape"
   width="48"
   height="48"
   viewBox="0 0 12.7 12.7"
   version="1.1"
   id="svg6"
   sodipodi:docname="apk-icon-editor.svg"
   inkscape:version="0.92.4 (5da689c313, 2019-01-14)">
  <metadata
     id="metadata12">
    <rdf:RDF>
      <cc:Work
         rdf:about="">
        <dc:format>image/svg+xml</dc:format>
        <dc:type
           rdf:resource="http://purl.org/dc/dcmitype/StillImage" />
        <dc:title></dc:title>
      </cc:Work>
    </rdf:RDF>
  </metadata>
  <defs
     id="defs10" />
  <sodipodi:namedview
     pagecolor="#ffffff"
     bordercolor="#666666"
     borderopacity="1"
     objecttolerance="10"
     gridtolerance="10"
     guidetolerance="10"
     inkscape:pageopacity="0"
     inkscape:pageshadow="2"
     inkscape:window-width="1087"
     inkscape:window-height="480"
     id="namedview8"
     showgrid="false"
     inkscape:zoom="4.9166667"
     inkscape:cx="2.1355932"
     inkscape:cy="24"
     inkscape:window-x="0"
     inkscape:window-y="25"
     inkscape:window-maximized="0"
     inkscape:current-layer="svg6" />
  <path
     d="M 6.31,1.52 A 4.87,4.87 0 0 0 5.95,1.53 4.87,4.87 0 0 0 5.46,1.59 4.87,4.87 0 0 0 5,1.7 4.87,4.87 0 0 0 4.54,1.86 4.87,4.87 0 0 0 4.09,2.06 4.87,4.87 0 0 0 3.67,2.3 4.87,4.87 0 0 0 3.27,2.59 4.87,4.87 0 0 0 2.91,2.91 4.87,4.87 0 0 0 2.58,3.27 4.87,4.87 0 0 0 2.29,3.66 4.87,4.87 0 0 0 2.04,4.07 4.87,4.87 0 0 0 1.83,4.51 4.87,4.87 0 0 0 1.66,4.97 4.87,4.87 0 0 0 1.54,5.44 4.87,4.87 0 0 0 1.47,5.92 4.87,4.87 0 0 0 1.45,6.41 a 4.87,4.87 0 0 0 0.01,0.35 4.87,4.87 0 0 0 0.06,0.49 4.87,4.87 0 0 0 0.1,0.47 4.87,4.87 0 0 0 0.16,0.46 4.87,4.87 0 0 0 0.2,0.45 4.87,4.87 0 0 0 0.25,0.42 4.87,4.87 0 0 0 0.28,0.4 4.87,4.87 0 0 0 0.32,0.36 4.87,4.87 0 0 0 0.36,0.33 4.87,4.87 0 0 0 0.39,0.3 4.87,4.87 0 0 0 0.41,0.25 4.87,4.87 0 0 0 0.44,0.21 4.87,4.87 0 0 0 0.46,0.17 4.87,4.87 0 0 0 0.47,0.12 4.87,4.87 0 0 0 0.48,0.07 4.87,4.87 0 0 0 0.49,0.02 4.87,4.87 0 0 0 0.35,-0.01 4.87,4.87 0 0 0 0.49,-0.06 4.87,4.87 0 0 0 0.47,-0.1 A 4.87,4.87 0 0 0 8.1,10.95 4.87,4.87 0 0 0 8.55,10.75 4.87,4.87 0 0 0 8.97,10.5 4.87,4.87 0 0 0 9.37,10.22 4.87,4.87 0 0 0 9.73,9.9 4.87,4.87 0 0 0 10.06,9.54 4.87,4.87 0 0 0 10.36,9.15 4.87,4.87 0 0 0 10.61,8.74 4.87,4.87 0 0 0 10.82,8.3 4.87,4.87 0 0 0 10.99,7.84 4.87,4.87 0 0 0 11.11,7.37 4.87,4.87 0 0 0 11.18,6.89 4.87,4.87 0 0 0 11.2,6.4 4.87,4.87 0 0 0 11.19,6.05 4.87,4.87 0 0 0 11.13,5.57 4.87,4.87 0 0 0 11.03,5.1 4.87,4.87 0 0 0 10.87,4.63 4.87,4.87 0 0 0 10.67,4.19 4.87,4.87 0 0 0 10.43,3.77 4.87,4.87 0 0 0 10.15,3.37 4.87,4.87 0 0 0 9.82,3.01 4.87,4.87 0 0 0 9.47,2.67 4.87,4.87 0 0 0 9.08,2.37 4.87,4.87 0 0 0 8.67,2.12 4.87,4.87 0 0 0 8.23,1.92 4.87,4.87 0 0 0 7.77,1.75 4.87,4.87 0 0 0 7.3,1.63 4.87,4.87 0 0 0 6.82,1.55 4.87,4.87 0 0 0 6.33,1.53 V 1.52 Z m -3.3,1.5 H 3.96 V 3.97 H 3 V 3 Z m 1.43,0 H 5.39 V 3.97 H 4.44 V 3 Z m 1.43,0 H 6.82 V 3.97 H 5.87 V 3 Z m 1.43,0 H 8.26 V 3.97 H 7.3 V 3 Z m 1.43,0 H 9.69 V 3.97 H 8.73 V 3 Z M 3,4.44 H 3.96 V 5.39 H 3 Z m 1.44,0 H 5.39 V 5.39 H 4.44 Z m 1.43,0 H 6.82 V 5.39 H 5.87 Z m 1.43,0 H 8.26 V 5.39 H 7.3 Z m 1.43,0 H 9.69 V 5.39 H 8.73 Z M 3,5.88 H 3.96 V 6.83 H 3 Z m 1.44,0 H 5.39 V 6.83 H 4.44 Z m 1.43,0 H 6.82 V 6.83 H 5.87 Z m 1.43,0 H 8.26 V 6.83 H 7.3 Z m 1.43,0 H 9.69 V 6.83 H 8.73 Z M 3,7.3 H 3.96 V 8.25 H 3 Z m 1.44,0 H 5.39 V 8.25 H 4.44 Z m 1.43,0 H 6.82 V 8.25 H 5.87 Z m 1.43,0 H 8.26 V 8.25 H 7.3 Z m 1.43,0 H 9.69 V 8.25 H 8.73 Z M 3,8.74 H 3.96 V 9.7 H 3 Z m 1.44,0 H 5.39 V 9.7 H 4.44 Z m 1.43,0 H 6.82 V 9.7 H 5.87 Z m 1.43,0 H 8.26 V 9.7 H 7.3 Z m 1.43,0 H 9.69 V 9.7 H 8.73 Z"
     id="path2"
     inkscape:connector-curvature="0"
     style="opacity:0.82999998;fill:#447821" />
  <path
     d="M 6.34,0.07 A 6.29,6.29 0 0 0 0.05,6.37 6.29,6.29 0 0 0 6.35,12.65 6.29,6.29 0 0 0 12.63,6.36 6.29,6.29 0 0 0 6.34,0.07 Z M 6.32,1 6.33,1.01 a 5.4,5.4 0 0 1 5.4,5.4 5.4,5.4 0 0 1 -5.4,5.41 A 5.4,5.4 0 0 1 0.92,6.42 5.4,5.4 0 0 1 6.32,1 Z"
     id="path4"
     inkscape:connector-curvature="0"
     style="fill:#2ca02c" />
</svg>
